packages/ffe-icons/icons/filled/md/bed.svg

<svg xmlns="http://www.w3.org/2000/svg" height="24" viewBox="0 -960 960 960" width="24"><path d="M100.001-250.001V-440q0-22.384 10.616-43.423 10.615-21.038 29.384-34.576v-102q0-41.922 29.038-70.96 29.039-29.038 70.961-29.038h170.001q21.846 0 39.153 8.5 17.308 8.5 30.846 23.5 13.538-15 30.846-23.5 17.307-8.5 39.153-8.5H720q41.922 0 70.961 29.038 29.038 29.038 29.038 70.96v102q18.769 13.538 29.384 34.576 10.616 21.039 10.616 43.423v189.999q0 12.75-8.629 21.375t-21.384 8.625q-12.756 0-21.371-8.625Q800-237.251 800-250.001v-50H160v50q0 12.75-8.629 21.375-8.628 8.625-21.384 8.625-12.755 0-21.37-8.625-8.616-8.625-8.616-21.375Zm409.998-289.998H760v-80q0-17-11.5-28.5t-28.5-11.5H549.999q-17 0-28.5 11.5t-11.5 28.5v80Zm-309.999 0h250.001v-80q0-17-11.5-28.5t-28.5-11.5H240q-17 0-28.5 11.5t-11.5 28.5v80Z"/></svg>

<svg xmlns="http://www.w3.org/2000/svg" height="24" viewBox="0 -960 960 960" width="24"><path d="M100-250v-190q0-22.38 10.62-43.42Q121.23-504.46 140-518v-102q0-41.92 29.04-70.96Q198.08-720 240-720h170q21.85 0 39.15 8.5Q466.46-703 480-688q13.54-15 30.85-23.5 17.3-8.5 39.15-8.5h170q41.92 0 70.96 29.04Q820-661.92 820-620v102q18.77 13.54 29.38 34.58Q860-462.38 860-440v190q0 12.75-8.63 21.37-8.63 8.63-21.38 8.63-12.76 0-21.37-8.63Q800-237.25 800-250v-50H160v50q0 12.75-8.63 21.37-8.63 8.63-21.38 8.63-12.76 0-21.37-8.63Q100-237.25 100-250Zm410-290h250v-80q0-17-11.5-28.5T720-660H550q-17 0-28.5 11.5T510-620v80Zm-310 0h250v-80q0-17-11.5-28.5T410-660H240q-17 0-28.5 11.5T200-620v80Z"/></svg>
